X: 21
T: Boże, czemuś mię, czemuś mię, mój wieczny
C: Mikołaj Gomółka
%%abc-version 2.0
%%abcx-abcm2ps-target-version 5.9.1 (29 Sep 2008)
%%abc-creator hum2abc beta
%%abcx-conversion-date 2021/10/04 07:59:09
%%abc-edited-by Marta Lawrence
%%abcx-initial-encoding-date 2020-02-05
%%humdrum-veritas 4245661473
%%humdrum-veritas-data 950182284
%%linebreak <none>
%%barnumbers 0
L: 1/4
M: C|
N: Derived from pl-wn--sd-xvi-qu-273--022_gomolka-mikolaj--boze-czemus-mie-czemus-mie-moj-wieczny.krn
%%staves [1 2 3 4]
V: 1
V: 2
V: 3 clef=alto
V: 4 clef=bass
K: C
[V:1] d4^c6 [|] 
[V:2] A4A6 [|] 
[V:3] F4E6 [|] 
[V:4] D,4A,,6 [|] 
[V:1] A2^G2A4 [|] 
[V:2] E2E2^C4 [|] 
[V:3] C2B,2A,4 [|] 
[V:4] A,2E,2A,,4 [|] 
[V:1] =c2B2A2 [|] 
[V:2] E2E2E2 [|] 
[V:3] A,2B,2^C2 [|] 
[V:4] A,,2^G,,2A,,2 [|] 
[V:1] A2_B4A2 [|] 
[V:2] F2G2G,2A,2 [|] 
[V:3] D2D4D2 [|] 
[V:4] D,2G,4^F,2 [|] 
[V:1] =G4^F2A3 [|] 
[V:2] B,A,B,=CD2F4 [|] 
[V:3] G,4A,2D4 [|] 
[V:4] G,2=G,,2D,2D,2 [|] 
[V:1] =BcBAGA2 [|] 
[V:2] E2F2F2 [|] 
[V:3] =C2D2F2 [|] 
[V:4] A,2>G,2=F,E,D,2 [|] 
[V:1] G2cBAG/A/BA2 [|] 
[V:2] G4F2F2 [|] 
[V:3] E2>D2C2D2 [|] 
[V:4] E,4F,2D,2 [|] 
[V:1] G/=F/AGA4 [|] 
[V:2] E2>D2^C4 [|] 
[V:3] C2B,2A,4 [|] 
[V:4] E,4A,,4 [|] 
[V:1] ^c4d2d2 [|] 
[V:2] A4A2G4 [|] 
[V:3] E4D2D2 [|] 
[V:4] A,4^F,2G,4 [|] 
[V:1] _B4A2A4 [|] 
[V:2] G2^F2D2 [|] 
[V:3] D4D2A,2 [|] 
[V:4] G,,2D,3E, [|] 
[V:1] G2=B2A2 [|] 
[V:2] D2D4D4 [|] 
[V:3] A,2B,2G,2A,2 [|] 
[V:4] ^F,2G,4^F,2 [|] 
[V:1] G4^F2A2 [|] 
[V:2] ^C2D2^F2 [|] 
[V:3] B,2G,2A,2D4 [|] 
[V:4] G,2E,2D,2D,2 [|] 
[V:1] B2^c2d4 [|] 
[V:2] G2G2A2D4 [|] 
[V:3] E2^F2G4 [|] 
[V:4] G,2E,2D,2G,4 [|] 
[V:1] B2=c2A2^G2 [|] 
[V:2] E2D=CB,2 [|] 
[V:3] E2=F2E2 [|] 
[V:4] C,2D,2E,2 [|] 
[V:1] A4^G4 [|] 
[V:2] A,2=F2E4 [|] 
[V:3] C2D2B,4 [|] 
[V:4] =F,2D,2E,4 [|] 
[V:1] A16 |]  
[V:2] E16 |]  
[V:3] ^C16 |]  
[V:4] A,,16 |]  


